assets/Wavy dash/Flat/wavy_dash_flat.svg

<svg width="32" height="32" viewBox="0 0 32 32" fill="none" xmlns="http://www.w3.org/2000/svg">
<path fill-rule="evenodd" clip-rule="evenodd" d="M1.96875 14.0607C1.96875 13.2322 2.64032 12.5607 3.46875 12.5607C3.95834 12.5607 4.39814 12.715 4.72964 12.8683C5.07707 13.029 5.41653 13.2412 5.73251 13.4663C6.36416 13.9163 7.0241 14.5061 7.63815 15.1055C8.88472 16.3223 10.8333 16.134 11.6832 14.908C13.7719 11.8951 18.2505 11.8577 20.3563 14.8868C21.1979 16.0973 23.1455 16.2802 24.406 15.0375C24.9997 14.4522 25.6403 13.8773 26.2611 13.4386C26.8048 13.0544 27.6201 12.5607 28.5 12.5607C29.3284 12.5607 30 13.2322 30 14.0607C30 14.8674 29.3631 15.5255 28.5646 15.5593C28.5493 15.5645 28.5241 15.5739 28.4881 15.5902C28.3723 15.6424 28.207 15.737 27.9924 15.8886C27.5621 16.1927 27.0534 16.6402 26.5121 17.1739C24.1414 19.511 19.9622 19.5755 17.8931 16.5992C16.9948 15.3072 15.0584 15.305 14.1487 16.6172C12.1011 19.5707 7.93547 19.588 5.54265 17.2523C4.97707 16.7003 4.44279 16.231 3.99183 15.9097C3.76651 15.7492 3.59256 15.6477 3.47025 15.5912C3.43438 15.5746 3.40875 15.5645 3.3926 15.5588C2.59956 15.5191 1.96875 14.8636 1.96875 14.0607Z" fill="#321B41"/>
</svg>

<svg xmlns="http://www.w3.org/2000/svg" width="32" height="32" fill="none"><path fill="#321B41" fill-rule="evenodd" d="M1.969 14.06a1.5 1.5 0 0 1 1.5-1.5c.49 0 .93.155 1.26.308.348.161.688.373 1.004.598.631.45 1.291 1.04 1.905 1.64 1.247 1.216 3.195 1.028 4.045-.198 2.089-3.013 6.567-3.05 8.673-.021.842 1.21 2.79 1.393 4.05.15.594-.585 1.234-1.16 1.855-1.598.544-.385 1.36-.878 2.239-.878a1.5 1.5 0 0 1 .065 2.998.854.854 0 0 0-.077.031 3.168 3.168 0 0 0-.496.299c-.43.304-.939.751-1.48 1.285-2.37 2.337-6.55 2.402-8.619-.575-.898-1.292-2.835-1.294-3.744.018-2.048 2.954-6.214 2.971-8.606.635-.566-.552-1.1-1.021-1.551-1.342-.225-.16-.4-.262-.522-.319a.92.92 0 0 0-.077-.032 1.5 1.5 0 0 1-1.424-1.498Z" clip-rule="evenodd"/></svg>
